app/assets/v2/images/avatar/HairStyle/womanhair4-8E2ABE.svg

<?xml version="1.0" standalone="no"?><!-- Generator: Gravit.io --><svg xmlns="http://www.w3.org/2000/svg" xmlns:xlink="http://www.w3.org/1999/xlink" style="isolation:isolate" viewBox="0 0 899.5 1499" width="899.5" height="1499"><defs><clipPath id="_clipPath_EIwasiCXoqEateeztMFNscLYe03lqm65"><rect width="899.5" height="1499"/></clipPath></defs><g clip-path="url(#_clipPath_EIwasiCXoqEateeztMFNscLYe03lqm65)"><path d=" M 795 708.176 C 854.7 703.276 854.7 626.276 854.7 626.276 C 854.7 600.776 848 581.576 840.7 568.176 C 825.1 539.676 820.7 505.976 831.8 475.476 C 831.9 475.276 832 475.076 832 474.876 C 840.7 451.476 839.6 425.176 826.1 404.276 C 816 388.676 801.8 374.576 787.7 363.076 C 760.7 340.776 738.1 313.376 720.5 283.176 C 694.9 239.276 657.5 215.476 657.5 215.476 C 519.8 116.876 427.4 199.076 427.4 199.076 C 427.4 199.076 334.9 116.876 197.3 215.476 C 197.3 215.476 159.9 239.276 134.2 283.176 C 116.5 313.476 94 340.876 67 363.076 C 53 374.576 38.7 388.676 28.6 404.276 C 15.1 425.176 14 451.576 22.7 474.876 C 22.8 475.076 22.8 475.276 22.9 475.476 C 34.1 505.976 29.6 539.676 14 568.176 C 6.7 581.576 0 600.776 0 626.276 C 0 626.276 0 703.376 59.7 708.176 C 62.5 708.376 64.5 711.176 63.3 713.776 C 63.2 713.976 63.1 714.176 63 714.376 C 39.3 767.576 50.4 829.576 90.2 872.176 C 123.6 908.076 152.5 958.376 115.1 1004.276 C 115.1 1004.276 238.4 1022.776 263 938.576 L 273.5 938.576 C 265.5 932.276 257.7 925.776 250.3 918.776 C 172.5 844.876 164.4 729.476 164.4 626.276 C 164.4 583.576 184.2 545.376 218.1 519.476 L 421.3 351.876 C 424.8 348.976 429.9 348.976 433.5 351.876 L 636.6 519.376 C 670.5 545.276 690.3 583.476 690.3 626.176 C 690.3 729.276 698.6 844.776 620.8 918.676 C 612.8 926.276 602.9 933.376 592.3 940.076 C 618.2 1022.276 739.6 1004.176 739.6 1004.176 C 702.2 958.276 731.1 907.976 764.5 872.076 C 804.2 829.476 815.4 767.476 791.6 714.176 C 791.5 713.976 791.4 713.776 791.3 713.576 C 790.2 711.076 792.1 708.376 795 708.176 Z " fill="rgb(142,42,190)" vector-effect="non-scaling-stroke" stroke-width="26.9" stroke="rgb(0,0,0)" stroke-linejoin="miter" stroke-linecap="butt" stroke-miterlimit="10"/></g></svg>

<svg xmlns="http://www.w3.org/2000/svg" style="isolation:isolate" width="899.5" height="1499"><defs><clipPath id="a"><path d="M0 0h899.5v1499H0z"/></clipPath></defs><g clip-path="url(#a)"><path d="M795 708.176c59.7-4.9 59.7-81.9 59.7-81.9 0-25.5-6.7-44.7-14-58.1-15.6-28.5-20-62.2-8.9-92.7.1-.2.2-.4.2-.6 8.7-23.4 7.6-49.7-5.9-70.6-10.1-15.6-24.3-29.7-38.4-41.2-27-22.3-49.6-49.7-67.2-79.9-25.6-43.9-63-67.7-63-67.7-137.7-98.6-230.1-16.4-230.1-16.4s-92.5-82.2-230.1 16.4c0 0-37.4 23.8-63.1 67.7-17.7 30.3-40.2 57.7-67.2 79.9-14 11.5-28.3 25.6-38.4 41.2-13.5 20.9-14.6 47.3-5.9 70.6.1.2.1.4.2.6 11.2 30.5 6.7 64.2-8.9 92.7-7.3 13.4-14 32.6-14 58.1 0 0 0 77.1 59.7 81.9 2.8.2 4.8 3 3.6 5.6l-.3.6c-23.7 53.2-12.6 115.2 27.2 157.8 33.4 35.9 62.3 86.2 24.9 132.1 0 0 123.3 18.5 147.9-65.7h10.5c-8-6.3-15.8-12.8-23.2-19.8-77.8-73.9-85.9-189.3-85.9-292.5 0-42.7 19.8-80.9 53.7-106.8l203.2-167.6c3.5-2.9 8.6-2.9 12.2 0l203.1 167.5c33.9 25.9 53.7 64.1 53.7 106.8 0 103.1 8.3 218.6-69.5 292.5-8 7.6-17.9 14.7-28.5 21.4 25.9 82.2 147.3 64.1 147.3 64.1-37.4-45.9-8.5-96.2 24.9-132.1 39.7-42.6 50.9-104.6 27.1-157.9l-.3-.6c-1.1-2.5.8-5.2 3.7-5.4z" fill="#8E2ABE" vector-effect="non-scaling-stroke" stroke-width="26.9" stroke="#000" stroke-miterlimit="10"/></g></svg>
